resources/static/img/icons/instagram.svg

<?xml version="1.0" encoding="UTF-8" standalone="no"?>
<svg
   xmlns:dc="http://purl.org/dc/elements/1.1/"
   xmlns:cc="http://creativecommons.org/ns#"
   xmlns:rdf="http://www.w3.org/1999/02/22-rdf-syntax-ns#"
   xmlns:svg="http://www.w3.org/2000/svg"
   xmlns="http://www.w3.org/2000/svg"
   style="fill:none"
   id="svg8"
   version="1.1"
   viewBox="0 0 22 22"
   height="22"
   width="22">
  <metadata
     id="metadata14">
    <rdf:RDF>
      <cc:Work
         rdf:about="">
        <dc:format>image/svg+xml</dc:format>
        <dc:type
           rdf:resource="http://purl.org/dc/dcmitype/StillImage" />
      </cc:Work>
    </rdf:RDF>
  </metadata>
  <defs
     id="defs12" />
  <path
     style="fill:#a0a0a0"
     id="path2"
     d="M 15.125,0 H 6.875 C 3.07863,0 0,3.07863 0,6.875 v 8.25 C 0,18.9214 3.07863,22 6.875,22 h 8.25 C 18.9214,22 22,18.9214 22,15.125 V 6.875 C 22,3.07863 18.9214,0 15.125,0 Z m 4.8125,15.125 c 0,2.6537 -2.1588,4.8125 -4.8125,4.8125 h -8.25 c -2.65375,0 -4.8125,-2.1588 -4.8125,-4.8125 v -8.25 c 0,-2.65375 2.15875,-4.8125 4.8125,-4.8125 h 8.25 c 2.6537,0 4.8125,2.15875 4.8125,4.8125 z" />
  <path
     style="fill:#a0a0a0"
     id="path4"
     d="m 11,5.5 c -3.03738,0 -5.5,2.46262 -5.5,5.5 0,3.0374 2.46262,5.5 5.5,5.5 3.0374,0 5.5,-2.4626 5.5,-5.5 0,-3.03738 -2.4626,-5.5 -5.5,-5.5 z m 0,8.9375 C 9.10525,14.4375 7.5625,12.8948 7.5625,11 7.5625,9.10388 9.10525,7.5625 11,7.5625 c 1.8948,0 3.4375,1.54138 3.4375,3.4375 0,1.8948 -1.5427,3.4375 -3.4375,3.4375 z" />
  <path
     style="fill:#a0a0a0"
     id="path6"
     d="m 16.9126,5.82036 c 0.4047,0 0.7328,-0.32812 0.7328,-0.73287 0,-0.40476 -0.3281,-0.73288 -0.7328,-0.73288 -0.4048,0 -0.7329,0.32812 -0.7329,0.73288 0,0.40475 0.3281,0.73287 0.7329,0.73287 z" />
</svg>

<svg width="22" height="22" viewBox="0 0 22 22" fill="none" xmlns="http://www.w3.org/2000/svg">
<path d="M15.125 0H6.875C3.07863 0 0 3.07863 0 6.875V15.125C0 18.9214 3.07863 22 6.875 22H15.125C18.9214 22 22 18.9214 22 15.125V6.875C22 3.07863 18.9214 0 15.125 0ZM19.9375 15.125C19.9375 17.7787 17.7787 19.9375 15.125 19.9375H6.875C4.22125 19.9375 2.0625 17.7787 2.0625 15.125V6.875C2.0625 4.22125 4.22125 2.0625 6.875 2.0625H15.125C17.7787 2.0625 19.9375 4.22125 19.9375 6.875V15.125Z" fill="#A0A0A0"/>
<path d="M11 5.5C7.96262 5.5 5.5 7.96262 5.5 11C5.5 14.0374 7.96262 16.5 11 16.5C14.0374 16.5 16.5 14.0374 16.5 11C16.5 7.96262 14.0374 5.5 11 5.5ZM11 14.4375C9.10525 14.4375 7.5625 12.8948 7.5625 11C7.5625 9.10388 9.10525 7.5625 11 7.5625C12.8948 7.5625 14.4375 9.10388 14.4375 11C14.4375 12.8948 12.8948 14.4375 11 14.4375Z" fill="#A0A0A0"/>
<path d="M16.9126 5.82036C17.3173 5.82036 17.6454 5.49224 17.6454 5.08749C17.6454 4.68273 17.3173 4.35461 16.9126 4.35461C16.5078 4.35461 16.1797 4.68273 16.1797 5.08749C16.1797 5.49224 16.5078 5.82036 16.9126 5.82036Z" fill="#A0A0A0"/>
</svg>
